X: 63
T: Debka Kafrit
T: Debka Majnun 1962
C: Dov Carmel
D: Dance Israel (Dancecraft LP 123301)
F: http://www.youtube.com/watch?v=_pQqO_Sz2o8
F: http://www.youtube.com/watch?v=qJ4M8dH8fPA
L:1/8
O: Israel 
M:2/4
Q:1/4=160
K:Bm
 z2 "D" D2     |:"A" E2 EF   |"D" D2 "A" CD | ED CD     | E2 ED        |\
 E2 EF         |"Em" GA GF   | GF "A"ED     |E2 E2      :|
 z2 "A" E2     |:A2 AB       |"Em" G2 "D" FE|"A" AAAB   |"Em" G2 "D" FE|\
 "A" AG "Em" GF|"D" FE "A" ED| EF "Em" GF   |"A" E2 E2  :|



